lib/logo_tmp/nrk-logo-nrk-yr-radio-on-dark.svg

<svg width="63" height="21" viewBox="0 0 63 21" fill="none" xmlns="http://www.w3.org/2000/svg">
<path d="M0 17.3333V3.3346H4.59339V17.3333H0ZM10.8428 5.56258L13.4844 17.3333H8.45737L5.30307 3.3346H8.12254C8.76907 3.32621 9.39641 3.55412 9.88691 3.97545C10.3782 4.37911 10.7158 4.93948 10.8428 5.56258ZM14.1744 17.3333V3.3346H18.7678V17.3333H14.1744ZM22.2372 8.65812C21.7422 8.66294 21.2552 8.53343 20.828 8.28346C20.4064 8.03981 20.0563 7.68962 19.8127 7.26803C19.5624 6.84072 19.4329 6.35355 19.4378 5.85837C19.4321 5.3662 19.5618 4.88194 19.8127 4.4585C20.0589 4.04149 20.4086 3.69511 20.828 3.45294C21.2553 3.20325 21.7423 3.07377 22.2372 3.07828C22.7292 3.07298 23.2133 3.20258 23.6369 3.45294C24.0521 3.69723 24.3981 4.04332 24.6424 4.4585C24.893 4.88206 25.0226 5.36624 25.0172 5.85837C25.0218 6.35352 24.8923 6.8406 24.6424 7.26803C24.4007 7.68777 24.0542 8.03766 23.6369 8.28346C23.2133 8.53431 22.7289 8.66394 22.2366 8.65812H22.2372ZM25.7269 17.3333V3.3346H30.3207V17.3333H25.7269ZM36.136 10.9846C36.1489 10.9982 36.2475 11.1592 36.4317 11.4676C36.6159 11.7761 36.8558 12.1705 37.1513 12.6507C37.447 13.1307 37.759 13.64 38.0874 14.1787C38.4157 14.7174 38.7247 15.2268 39.0143 15.7067C39.3028 16.1867 39.6313 16.7289 40 17.3333H34.9531C34.6375 16.8207 34.3515 16.3574 34.0952 15.9433C33.8389 15.5293 33.5665 15.0823 33.2778 14.6026C32.9884 14.1233 32.7024 13.6566 32.4196 13.2027C32.1368 12.7488 31.8938 12.3512 31.6905 12.0099C31.4863 11.6684 31.3449 11.4383 31.2663 11.3198C31.0713 11.0257 30.9559 10.686 30.9315 10.334C30.951 9.99609 31.0597 9.66947 31.2466 9.3873C31.3254 9.25585 31.47 9.0225 31.6803 8.68732C31.8906 8.35214 32.137 7.95456 32.4196 7.49451C32.7021 7.03446 32.9882 6.56454 33.2778 6.08477C33.5674 5.605 33.8398 5.15477 34.0952 4.73416C34.3519 4.31398 34.6379 3.84735 34.9531 3.33428H40L36.0962 9.70275C35.9754 9.89183 35.9073 10.1097 35.8991 10.334C35.9121 10.5694 35.9942 10.7957 36.1353 10.9846H36.136Z" fill="white"/>
<circle cx="52.3333" cy="10.3335" r="10" fill="white"/>
<path d="M56.5721 8.16905H55.1124C54.8938 8.17198 54.6849 8.26012 54.5304 8.41474C54.3758 8.56936 54.2877 8.77825 54.2849 8.99686V11.1134C54.547 10.9973 54.8267 10.9262 55.1124 10.9031H56.7218C56.9144 10.9125 57.107 10.8831 57.288 10.8166C57.469 10.7501 57.6348 10.6479 57.7754 10.516C57.9072 10.3752 58.0093 10.2094 58.0758 10.0284C58.1423 9.84743 58.1718 9.65495 58.1626 9.46237C58.1717 9.28698 58.1398 9.11187 58.0694 8.95098C57.999 8.79009 57.8921 8.64783 57.757 8.53552C57.416 8.28076 56.9975 8.15135 56.5721 8.16905Z" fill="#00B8F1"/>
<path d="M52.3332 0C49.5926 0 46.9644 1.08869 45.0265 3.02653C43.0887 4.96438 42 7.59265 42 10.3332C42 13.0737 43.0887 15.702 45.0265 17.6399C46.9643 19.5778 49.5926 20.6666 52.3332 20.6667C55.0738 20.6667 57.7021 19.578 59.6401 17.6401C61.578 15.7021 62.6667 13.0738 62.6667 10.3332C62.6666 7.59262 61.5778 4.96433 59.6399 3.02649C57.702 1.08866 55.0737 -1.33549e-09 52.3332 0ZM51.5551 12.2055C51.5476 14.4131 49.965 15.1151 49.3614 15.4661L48.3213 14.2079L48.3455 14.196L48.3213 14.1673C48.6559 13.9998 49.8982 13.3624 49.8982 12.3859V11.6487C49.7272 11.9959 48.842 12.3888 48.24 12.3988H48.1736C47.317 12.4 46.491 12.0807 45.858 11.5036C45.5247 11.1807 45.2627 10.7917 45.0886 10.3616C44.9145 9.93151 44.8322 9.46976 44.8469 9.006V6.78006H46.4615V9.006C46.4615 10.3009 47.3571 10.7726 48.2071 10.7845C48.9514 10.7742 49.8846 10.4516 49.9169 9.4541V6.7788H51.5534L51.5551 12.2055ZM58.5671 13.5759C58.6562 13.6692 58.7681 13.7376 58.8917 13.7744C59.0153 13.8112 59.1463 13.8152 59.272 13.786L59.2697 15.1244H58.2903C58.279 15.1244 58.268 15.1264 58.258 15.1264C58.248 15.1264 58.2351 15.1264 58.2235 15.1244H58.1874V15.1225C57.9965 15.1066 57.817 15.0252 57.6793 14.8921L55.7737 12.5578H55.114C54.8953 12.5607 54.6864 12.6489 54.5319 12.8036C54.3773 12.9583 54.2893 13.1673 54.2865 13.3859V15.1244H52.6316V8.99667C52.6324 8.3384 52.8942 7.70732 53.3595 7.24171C53.8248 6.77609 54.4557 6.51391 55.114 6.51263H56.5737C57.385 6.49293 58.1778 6.75681 58.8155 7.2588C59.1369 7.52717 59.394 7.86424 59.5679 8.24518C59.7418 8.62612 59.8279 9.04122 59.82 9.45989C59.8294 9.87023 59.757 10.2783 59.6072 10.6605C59.4574 11.0426 59.2331 11.3911 58.9474 11.6858C58.5879 12.0422 58.1424 12.2997 57.6541 12.4333C57.6541 12.4333 58.2129 13.1966 58.5671 13.5746V13.5759Z" fill="#00B8F1"/>
</svg>

<svg xmlns="http://www.w3.org/2000/svg" viewBox="0 0 63 21"><path fill="#fff" d="M0 17.333V3.335h4.593v13.998H0Zm10.843-11.77 2.641 11.77H8.457L5.303 3.335h2.82a2.655 2.655 0 0 1 1.764.64c.491.404.829.964.956 1.588Zm3.331 11.77V3.335h4.594v13.998h-4.594Zm8.063-8.675a2.738 2.738 0 0 1-1.409-.375 2.778 2.778 0 0 1-1.015-1.015 2.735 2.735 0 0 1-.375-1.41 2.685 2.685 0 0 1 .375-1.4 2.812 2.812 0 0 1 3.824-1.005c.415.244.761.59 1.005 1.006.251.423.38.907.375 1.4.005.495-.125.982-.375 1.409a2.8 2.8 0 0 1-1.005 1.015c-.424.251-.908.38-1.4.375Zm3.49 8.675V3.335h4.594v13.998h-4.594Zm10.409-6.348c.013.013.111.174.296.483.184.308.424.703.72 1.183a384.573 384.573 0 0 1 1.862 3.056c.289.48.617 1.022.986 1.626h-5.047l-.858-1.39c-.256-.414-.529-.86-.817-1.34-.29-.48-.576-.946-.858-1.4a71.148 71.148 0 0 1-.73-1.193 21.119 21.119 0 0 0-.424-.69 2.04 2.04 0 0 1-.334-.986c.019-.338.128-.665.315-.947.078-.131.223-.364.433-.7a216.7 216.7 0 0 0 1.598-2.603l.817-1.35.858-1.4H40l-3.904 6.369c-.12.189-.189.407-.197.631.013.235.095.462.236.65h.001Z"/><circle cx="52.333" cy="10.334" r="10" fill="#fff"/><path fill="#00B8F1" d="M56.572 8.17h-1.46a.839.839 0 0 0-.827.827v2.116a2.55 2.55 0 0 1 .827-.21h1.61a1.439 1.439 0 0 0 1.053-.387 1.44 1.44 0 0 0 .388-1.054 1.13 1.13 0 0 0-.406-.926 1.851 1.851 0 0 0-1.185-.367Z"/><path fill="#00B8F1" d="M52.333 0a10.333 10.333 0 1 0 0 20.667 10.333 10.333 0 0 0 0-20.667Zm-.778 12.206c-.007 2.207-1.59 2.91-2.194 3.26l-1.04-1.258.025-.012-.025-.029c.335-.167 1.577-.805 1.577-1.781v-.737c-.17.347-1.056.74-1.658.75h-.066a3.43 3.43 0 0 1-2.316-.895 3.33 3.33 0 0 1-1.011-2.498V6.78h1.614v2.226c0 1.295.896 1.767 1.746 1.778.744-.01 1.678-.332 1.71-1.33V6.78h1.636l.002 5.427Zm7.012 1.37a.741.741 0 0 0 .705.21l-.002 1.338h-.98l-.032.002c-.01 0-.023 0-.035-.002h-.036v-.002a.83.83 0 0 1-.508-.23l-1.905-2.334h-.66a.838.838 0 0 0-.828.828v1.738h-1.654V8.997a2.487 2.487 0 0 1 2.482-2.484h1.46a3.488 3.488 0 0 1 2.242.746 2.8 2.8 0 0 1 1.004 2.2 3.096 3.096 0 0 1-.873 2.227c-.36.356-.805.614-1.293.747 0 0 .559.764.913 1.142Z"/></svg>
